outputs/icons/content/flag_round.svg

<svg xmlns="http://www.w3.org/2000/svg" width="1200" height="1200" fill="none"><g clip-path="url(#a)"><path fill="#000" d="m720 300-12-60c-4.5-23-25-40-49-40H300c-27.5 0-50 22.5-50 50v750c0 27.5 22.5 50 50 50s50-22.5 50-50V700h280l12 60c4.5 23.5 25 40 49 40h259c27.5 0 50-22.5 50-50V350c0-27.5-22.5-50-50-50z"/></g><defs><clipPath id="a"><path fill="#fff" d="M0 0h1200v1200H0z"/></clipPath></defs></svg>

<svg width="1200" height="1200" viewBox="0 0 1200 1200" fill="none" xmlns="http://www.w3.org/2000/svg"><g clip-path="url(#clip0_225_3315)"><path d="M720 300L708 240C703.5 217 683 200 659 200H300C272.5 200 250 222.5 250 250V1000C250 1027.5 272.5 1050 300 1050C327.5 1050 350 1027.5 350 1000V700H630L642 760C646.5 783.5 667 800 691 800H950C977.5 800 1000 777.5 1000 750V350C1000 322.5 977.5 300 950 300H720Z" fill="#1D1E23"/></g><defs><clipPath id="clip0_225_3315"><path width="24" fill="white" d="M0 0H1200V1200H0V0z"/></clipPath></defs></svg>
